X:4532
L:1/8
M:2/2
K:Gmix
 g2 g2 g2 a2 | g6 f2 | e2 d2 c2 d2 | B4 G4 :: e2 c2 c2 d2 | e2 c2 c2 d2 | e2 c2 c2 d2 | B4 G4 :: 
 gfga gfga | g2 ef g4 | eded cedc | B2 AB G4 :: eded c2 d2 | eded c2 d2 | eded cedc | B2 AB G4 :|

